gama.ui.shared/icons_svg/light/navigator/import.disk.svg

<svg height="25" viewBox="-549.162 -3708.225 25 25" width="25" xmlns="http://www.w3.org/2000/svg"><g fill="none"><path d="m-544.8223-3707.725h16.32c2.12075 0 3.84 1.7192 3.84 3.84v16.32c0 2.1208-1.71925 3.84-3.84 3.84h-16.32c-2.1208 0-3.84-1.7192-3.84-3.84v-16.32c0-2.1208 1.7192-3.84 3.84-3.84z" fill="#fff"/><path d="m-544.8223-3707.725h16.32c2.12075 0 3.84 1.7192 3.84 3.84v16.32c0 2.1208-1.71925 3.84-3.84 3.84h-16.32c-2.1208 0-3.84-1.7192-3.84-3.84v-16.32c0-2.1208 1.7192-3.84 3.84-3.84z" stroke="#000" stroke-linecap="round" stroke-linejoin="round" stroke-width=".25"/><path d="m-544.6623-3690.483v-10.4c0-1.1045.8954-2 2-2h12c1.10455 0 2 .8955 2 2v10.4c0 1.1047-.89545 2-2 2h-12c-1.1046 0-2-.8953-2-2zm.8-3.2c.33424-.251.74973-.4 1.2-.4h12c.4502 0 .8657.149 1.2.4v-7.2c0-.6626-.5373-1.2-1.2-1.2h-12c-.66277 0-1.2.5374-1.2 1.2zm0 3.2c0 .663.53723 1.2 1.2 1.2h12c.6627 0 1.2-.537 1.2-1.2v-1.6c0-.6626-.5373-1.2-1.2-1.2h-12c-.66277 0-1.2.5374-1.2 1.2zm11.6-2h1.6c.2209 0 .4.179.4.4v1.6c0 .221-.1791.4-.4.4h-1.6c-.22094 0-.4-.179-.4-.4v-1.6c0-.221.17906-.4.4-.4zm.4.8v.8h.8v-.8zm-10 .8c-.22094 0-.4-.179-.4-.4s.17906-.4.4-.4h4.8c.2209 0 .4.179.4.4s-.1791.4-.4.4z" fill="#5c76a2"/></g></svg>

<?xml version="1.0" encoding="UTF-8" standalone="no"?>
<!DOCTYPE svg PUBLIC "-//W3C//DTD SVG 1.1//EN" "http://www.w3.org/Graphics/SVG/1.1/DTD/svg11.dtd">
<svg version="1.1" xmlns="http://www.w3.org/2000/svg" xmlns:xl="http://www.w3.org/1999/xlink" xmlns:dc="http://purl.org/dc/elements/1.1/" viewBox="-549.1623 -3708.225 25 25" width="25" height="25">
  <defs/>
  <g id="SOURCES" stroke-dasharray="none" fill="none" stroke="none" fill-opacity="1" stroke-opacity="1">
    <title>SOURCES</title>
    <g id="SOURCES_Calque_1">
      <title>Calque 1</title>
      <g id="Graphic_6500">
        <title>views/view.other</title>
        <path d="M -544.8223 -3707.725 L -528.5023 -3707.725 C -526.38155 -3707.725 -524.6623 -3706.0058 -524.6623 -3703.885 L -524.6623 -3687.565 C -524.6623 -3685.4442 -526.38155 -3683.725 -528.5023 -3683.725 L -544.8223 -3683.725 C -546.9431 -3683.725 -548.6623 -3685.4442 -548.6623 -3687.565 L -548.6623 -3703.885 C -548.6623 -3706.0058 -546.9431 -3707.725 -544.8223 -3707.725 Z" fill="white"/>
        <path d="M -544.8223 -3707.725 L -528.5023 -3707.725 C -526.38155 -3707.725 -524.6623 -3706.0058 -524.6623 -3703.885 L -524.6623 -3687.565 C -524.6623 -3685.4442 -526.38155 -3683.725 -528.5023 -3683.725 L -544.8223 -3683.725 C -546.9431 -3683.725 -548.6623 -3685.4442 -548.6623 -3687.565 L -548.6623 -3703.885 C -548.6623 -3706.0058 -546.9431 -3707.725 -544.8223 -3707.725 Z" stroke="black" stroke-linecap="round" stroke-linejoin="round" stroke-width=".25"/>
      </g>
      <g id="Graphic_6503">
        <path d="M -544.6623 -3690.483 L -544.6623 -3700.883 C -544.6623 -3701.9875 -543.7669 -3702.883 -542.6623 -3702.883 L -530.6623 -3702.883 C -529.55775 -3702.883 -528.6623 -3701.9875 -528.6623 -3700.883 L -528.6623 -3690.483 C -528.6623 -3689.3783 -529.55775 -3688.483 -530.6623 -3688.483 L -542.6623 -3688.483 C -543.7669 -3688.483 -544.6623 -3689.3783 -544.6623 -3690.483 Z M -543.8623 -3693.683 C -543.52806 -3693.934 -543.11257 -3694.083 -542.6623 -3694.083 L -530.6623 -3694.083 C -530.2121 -3694.083 -529.7966 -3693.934 -529.4623 -3693.683 L -529.4623 -3700.883 C -529.4623 -3701.5456 -529.9996 -3702.083 -530.6623 -3702.083 L -542.6623 -3702.083 C -543.32507 -3702.083 -543.8623 -3701.5456 -543.8623 -3700.883 L -543.8623 -3693.683 Z M -543.8623 -3690.483 C -543.8623 -3689.82 -543.32507 -3689.283 -542.6623 -3689.283 L -530.6623 -3689.283 C -529.9996 -3689.283 -529.4623 -3689.82 -529.4623 -3690.483 L -529.4623 -3692.083 C -529.4623 -3692.7456 -529.9996 -3693.283 -530.6623 -3693.283 L -542.6623 -3693.283 C -543.32507 -3693.283 -543.8623 -3692.7456 -543.8623 -3692.083 Z M -532.2623 -3692.483 L -530.6623 -3692.483 C -530.4414 -3692.483 -530.2623 -3692.304 -530.2623 -3692.083 L -530.2623 -3690.483 C -530.2623 -3690.262 -530.4414 -3690.083 -530.6623 -3690.083 L -532.2623 -3690.083 C -532.48324 -3690.083 -532.6623 -3690.262 -532.6623 -3690.483 L -532.6623 -3692.083 C -532.6623 -3692.304 -532.48324 -3692.483 -532.2623 -3692.483 Z M -531.8623 -3691.683 L -531.8623 -3690.883 L -531.0623 -3690.883 L -531.0623 -3691.683 Z M -541.8623 -3690.883 C -542.08324 -3690.883 -542.2623 -3691.062 -542.2623 -3691.283 C -542.2623 -3691.504 -542.08324 -3691.683 -541.8623 -3691.683 L -537.0623 -3691.683 C -536.8414 -3691.683 -536.6623 -3691.504 -536.6623 -3691.283 C -536.6623 -3691.062 -536.8414 -3690.883 -537.0623 -3690.883 Z" fill="#5c76a2"/>
      </g>
    </g>
  </g>
</svg>
